FlatUX/src/svg/Pioneer - Laseractive-content.svg

<svg enable-background="new 0 0 256 256" viewBox="0 0 256 256" xmlns="http://www.w3.org/2000/svg"><path d="m128 12c-64.071 0-116 51.934-116 116s51.929 116 116 116c64.051 0 116-51.934 116-116s-51.949-116-116-116zm0 132c-8.837 0-16-7.163-16-16s7.163-16 16-16 16 7.163 16 16-7.163 16-16 16z" fill="#1b80bb"/><path d="m128 16c-29.918 0-58.045 11.65-79.198 32.804-21.153 21.153-32.802 49.279-32.802 79.196s11.649 58.043 32.802 79.196c21.153 21.154 49.28 32.804 79.198 32.804 61.757 0 112-50.243 112-112s-50.243-112-112-112zm0 128c-8.837 0-16-7.163-16-16s7.163-16 16-16 16 7.163 16 16-7.163 16-16 16z" fill="#3babe0"/><path d="m231.425 85.167c-10.976-26.498-32.037-48.817-60.566-60.634l-36.738 88.692c4.082 1.691 7.092 4.876 8.659 8.659z" fill="#3394d1"/><path d="m24.522 170.869c11.448 27.638 32.975 49.164 60.616 60.613l36.738-88.692c-4.082-1.691-7.092-4.876-8.659-8.659z" fill="#3394d1"/><path d="m128.002 96c-17.649 0-32.002 14.356-32.002 32s14.353 32 32.002 32c17.645 0 31.998-14.356 31.998-32s-14.353-32-31.998-32zm-.002 48c-8.837 0-16-7.163-16-16s7.163-16 16-16 16 7.163 16 16-7.163 16-16 16z" fill="#1b80bb"/></svg>

<svg xmlns="http://www.w3.org/2000/svg" viewBox="0 0 256 256"><path fill="#1b80bb" d="M128 12C63.929 12 12 63.934 12 128s51.929 116 116 116c64.051 0 116-51.934 116-116S192.051 12 128 12m0 132c-8.837 0-16-7.163-16-16s7.163-16 16-16 16 7.163 16 16-7.163 16-16 16"/><path fill="#3babe0" d="M128 16c-29.918 0-58.045 11.65-79.198 32.804C27.649 69.957 16 98.083 16 128s11.649 58.043 32.802 79.196C69.955 228.35 98.082 240 128 240c61.757 0 112-50.243 112-112S189.757 16 128 16m0 128c-8.837 0-16-7.163-16-16s7.163-16 16-16 16 7.163 16 16-7.163 16-16 16"/><path fill="#3394d1" d="M231.425 85.167c-10.976-26.498-32.037-48.817-60.566-60.634l-36.738 88.692a15.95 15.95 0 0 1 8.659 8.659zM24.522 170.869c11.448 27.638 32.975 49.164 60.616 60.613l36.738-88.692a15.95 15.95 0 0 1-8.659-8.659z"/><path fill="#1b80bb" d="M128.002 96C110.353 96 96 110.356 96 128s14.353 32 32.002 32C145.647 160 160 145.644 160 128s-14.353-32-31.998-32M128 144c-8.837 0-16-7.163-16-16s7.163-16 16-16 16 7.163 16 16-7.163 16-16 16"/></svg>
